icons/1_Primary/Invoice Ninja.svg

<svg width="1024" height="1024" viewBox="0 0 1024 1024" fill="none" xmlns="http://www.w3.org/2000/svg">
<g clip-path="url(#clip0_2_2532)">
<path d="M512 1024C794.77 1024 1024 794.77 1024 512C1024 229.23 794.77 0 512 0C229.23 0 0 229.23 0 512C0 794.77 229.23 1024 512 1024Z" fill="#56595B"/>
<path d="M608.62 473.91C608.62 479.147 607.067 484.267 604.157 488.622C601.248 492.976 597.112 496.37 592.274 498.374C587.435 500.379 582.111 500.903 576.974 499.881C571.837 498.86 567.119 496.338 563.416 492.634C559.713 488.931 557.191 484.213 556.169 479.076C555.147 473.94 555.672 468.615 557.676 463.777C559.68 458.938 563.074 454.802 567.429 451.893C571.783 448.983 576.903 447.43 582.14 447.43C589.163 447.43 595.898 450.22 600.864 455.186C605.83 460.152 608.62 466.887 608.62 473.91ZM465.57 473.91C465.57 479.149 464.016 484.271 461.106 488.627C458.195 492.983 454.058 496.379 449.217 498.384C444.377 500.389 439.051 500.913 433.912 499.891C428.774 498.869 424.054 496.346 420.349 492.641C416.644 488.937 414.121 484.217 413.099 479.078C412.077 473.94 412.602 468.613 414.607 463.773C416.611 458.932 420.007 454.795 424.363 451.885C428.719 448.974 433.841 447.42 439.08 447.42C446.104 447.423 452.839 450.215 457.805 455.182C462.771 460.15 465.56 466.886 465.56 473.91H465.57ZM462.38 781.5C355.18 759.2 275.21 684.65 246.66 580.34C237.08 545.34 237.08 478.19 246.66 443.22C273.26 346.12 346.6 272.78 443.66 246.22C478.66 236.64 545.81 236.64 580.8 246.22C677.88 272.82 751.24 346.16 777.8 443.22C783.26 463.1 784.49 475.75 784.49 511.79C784.49 547.83 783.26 560.48 777.82 580.36C751.2 677.53 676.82 751.81 580.82 777.15C549.17 785.48 491.73 787.59 462.38 781.5ZM613.44 569.58C544.12 538.91 521.21 530.06 511.06 530.06C500.91 530.06 478.46 538.71 411.41 568.37C363.84 589.44 324.32 608.37 323.59 609.09H702.69L613.44 569.58ZM388.83 561.37C425.71 544.79 458.45 529.82 461.54 528.06C467.41 524.76 469.21 526.06 341.3 444.29C328.56 436.15 318 428.41 318 429.5V593.08C341.627 582.56 365.237 571.99 388.83 561.37ZM709.11 511.46V430.46C709.11 427.96 670.98 453.05 629.58 478.69C561.33 520.87 554.94 525.56 561.24 528.4C591.84 542.3 707.3 593.51 709.12 593.74L709.11 511.46ZM523.26 514C535.66 516.84 537.89 516.37 551.15 508C559.09 503 566.05 498.47 566.64 497.94C567.23 497.41 565.5 493.82 562.84 489.94C560.18 486.06 558 478.58 558 473.14V463.31L545 468.09C528.48 474.16 493.13 474.23 476.75 468.2L464.1 463.54L464.4 473.82C464.56 479.74 462.4 486.63 459.28 490.09C454 495.91 454.28 496.37 469.52 506.61C484.08 516.44 486.01 516.96 497.52 514.05C505.975 511.951 514.815 511.951 523.27 514.05L523.26 514ZM427 453.67C424.61 451.1 359.43 431.97 358 433.4C357.32 434.08 369.47 442.82 385 452.83L413.22 471L421 463.2C425.23 458.92 428 454.62 427.1 453.64L427 453.67ZM649 445.18C659.76 438.18 667.2 432.55 665.56 432.55C662.03 432.55 600.11 450.84 596.7 452.89C595.4 453.66 597.45 458.1 601.25 462.74L608.17 471.16L618.86 464.49C624.71 460.8 638.29 452.11 649.03 445.15L649 445.18ZM611.78 432.55C659.78 419.13 699.78 407.48 700.6 406.64H320.6C324.85 410.89 497.6 456.58 509.95 456.74C519.35 456.85 555.84 448.18 611.85 432.55H611.78Z" fill="white"/>
</g>
<defs>
<clipPath id="clip0_2_2532">
<rect width="1024" height="1024" fill="white"/>
</clipPath>
</defs>
</svg>

<svg width="1024" height="1024" fill="none" xmlns="http://www.w3.org/2000/svg"><g clip-path="url(#a)"><path d="M512 1024c282.77 0 512-229.23 512-512S794.77 0 512 0 0 229.23 0 512s229.23 512 512 512Z" fill="#56595B"/><path d="M608.62 473.91a26.48 26.48 0 1 1-52.961 0 26.48 26.48 0 0 1 52.961 0Zm-143.05 0a26.495 26.495 0 0 1-16.353 24.474 26.49 26.49 0 1 1-10.137-50.964 26.49 26.49 0 0 1 26.48 26.49h.01Zm-3.19 307.59c-107.2-22.3-187.17-96.85-215.72-201.16-9.58-35-9.58-102.15 0-137.12 26.6-97.1 99.94-170.44 197-197 35-9.58 102.15-9.58 137.14 0 97.08 26.6 170.44 99.94 197 197 5.46 19.88 6.69 32.53 6.69 68.57 0 36.04-1.23 48.69-6.67 68.57-26.62 97.17-101 171.45-197 196.79-31.65 8.33-89.09 10.44-118.44 4.35Zm151.06-211.92c-69.32-30.67-92.23-39.52-102.38-39.52-10.15 0-32.6 8.65-99.65 38.31-47.57 21.07-87.09 40-87.82 40.72h379.1l-89.25-39.51Zm-224.61-8.21c36.88-16.58 69.62-31.55 72.71-33.31 5.87-3.3 7.67-2-120.24-83.77-12.74-8.14-23.3-15.88-23.3-14.79v163.58c23.627-10.52 47.237-21.09 70.83-31.71Zm320.28-49.91v-81c0-2.5-38.13 22.59-79.53 48.23-68.25 42.18-74.64 46.87-68.34 49.71 30.6 13.9 146.06 65.11 147.88 65.34l-.01-82.28ZM523.26 514c12.4 2.84 14.63 2.37 27.89-6 7.94-5 14.9-9.53 15.49-10.06.59-.53-1.14-4.12-3.8-8s-4.84-11.36-4.84-16.8v-9.83l-13 4.78c-16.52 6.07-51.87 6.14-68.25.11l-12.65-4.66.3 10.28c.16 5.92-2 12.81-5.12 16.27-5.28 5.82-5 6.28 10.24 16.52 14.56 9.83 16.49 10.35 28 7.44a53.436 53.436 0 0 1 25.75 0l-.01-.05ZM427 453.67c-2.39-2.57-67.57-21.7-69-20.27-.68.68 11.47 9.42 27 19.43L413.22 471l7.78-7.8c4.23-4.28 7-8.58 6.1-9.56l-.1.03Zm222-8.49c10.76-7 18.2-12.63 16.56-12.63-3.53 0-65.45 18.29-68.86 20.34-1.3.77.75 5.21 4.55 9.85l6.92 8.42 10.69-6.67c5.85-3.69 19.43-12.38 30.17-19.34l-.03.03Zm-37.22-12.63c48-13.42 88-25.07 88.82-25.91h-380c4.25 4.25 177 49.94 189.35 50.1 9.4.11 45.89-8.56 101.9-24.19h-.07Z" fill="#fff"/></g><defs><clipPath id="a"><path fill="#fff" d="M0 0h1024v1024H0z"/></clipPath></defs></svg>
